X: 3
T:Woolloomooloo Lair
M:6/8
L:1/8
Q:180
K:G
d2 d|"G"d2 d d2 B|"(G7)"G3 G GF|"C"EE F G2 F|"G"D3 z DD|G2 G GA B-|"A(Em
)"B2 B AA G|"D(Am)"A4-A2|
"D7(D)"z2 z d2 d|"G"d2 d d2 B|"(G7)"G3 z2 G|"C"E2 F G2 F|"G"D3 z2 A|B2 B
 B2 G|"D"AA A- G2 F|"G"G3- "(C)"G3|
"G7(G)"z2 z A2 B|"C"cc c- c2 c|c3 c2 c|"G"B2 B B2 A|G3 z Bc|d2 d dd d-|"
Am(Em)"d2 d c2 B|"D(Am)"A4-A2|
"D7(D)"z2 z D2 D|"G"G2 A B2 A|"(G7)"G3 G2 F|"C"E2 G G2 E|"G"D3 z GA |B2
B B2 G|"D"A2 A GG F|
"G"G3- "C"G3-|"G"G3|
T:Chorus
A2 B|"C"c2 c  c2 c|c2 c- c2 c|"G"B2 B B2 A|A2 G-G2 D|G2 G GG A|"(Em)"B2
B A2 G|"D(Am)"A3- A3|
"(D)"A3 z2 d|"G"dd d- d2 B|G2 G G2 G|"C"E2 G GE D-|"G"D2 D z GA|B2 B BBB
|"D"A2 A A2 A|
"G"G2 G "D"FFF|"G"G3||
T:Last 4 bars/Intro/Interlude Variation:
 z GA|"G"B2 B BAG|"D"A2 A G2 F|"G"G2 G "D"FFF|"G"G3||
